X:6745
T:the Waterloo Dance
A:Leeds
L:1/8
M:2/4
N:A version of this also in VMP
O:England
Q:200
R:March
Z:Richard Robinson 
%%TUNEURL: http://www.leeds.ac.uk/music/Info/RRTuneBk/gettune/00000d25.html
%%ID:00000d25
K:D
A/2G/2|\
Fd/2B/2 Af/2e/2 | dd dc/2d/2 | ee d/2c/2B/2c/2 |1 d/2e/2f/2d/2 A :|2 d3 |:
[K:A] c/d/|\
ec a>f | e/f/e/c/ A2 |1 G/A/B/c/ df/e/ | d2c :|2 G/A/B/c/ d/B/G/B/ | A3 |:
[K:D]
f/2g/2 |\
aa af/2a/2 | ba gf | e>d e/2d/2e/2f/2 |1 d>e f :|1 d3 ||
